;FLAVOR:Marlin
;TIME:4120
;Filament used: 2.47099m
;Layer height: 0.2
;MINX:82.448
;MINY:96.2
;MINZ:0.2
;MAXX:137.548
;MAXY:123.8
;MAXZ:39.4
;TARGET_MACHINE.NAME:Creality Ender-3 Pro
;Generated with Cura_SteamEngine 5.9.0
M82 ;absolute extrusion mode
; Ender 3 Custom Start G-code
G92 E0 ; Reset Extruder
G28 ; Home all axes
G1 Z5.0 F3000 ; Move Z Axis up a bit during heating to not damage bed
M104 S175 ; Start heating up the nozzle most of the way
M190 S60 ; Start heating the bed, wait until target temperature reached
M109 S200 ; Finish heating the nozzle
G1 Z2.0 F3000 ; Move Z Axis up little to prevent scratching of Heat Bed
G1 X0.1 Y20 Z0.3 F5000.0 ; Move to start position
G1 X0.1 Y200.0 Z0.3 F1500.0 E15 ; Draw the first line
G1 X0.4 Y200.0 Z0.3 F5000.0 ; Move to side a little
G1 X0.4 Y20 Z0.3 F1500.0 E30 ; Draw the second line
G92 E0 ; Reset Extruder
G1 Z2.0 F3000 ; Move Z Axis up little to prevent scratching of Heat Bed
G1 X5 Y20 Z0.3 F5000.0 ; Move over to prevent blob squish
G92 E0
G92 E0
G1 F1500 E-2
;LAYER_COUNT:197
;LAYER:0
M107
;MESH:Mic Clip v5.stl
G0 F6000 X94.784 Y103.648 Z0.2
;TYPE:WALL-INNER
G1 F1500 E0
G1 F1200 X90.195 Y103.646 E0.15263
G1 X89.765 Y103.605 E0.167
G1 X89.29 Y103.475 E0.18338
G1 X88.847 Y103.251 E0.19989
G1 X88.46 Y102.957 E0.21605
G1 X88.138 Y102.604 E0.23194
G1 X87.871 Y102.18 E0.24861
G1 X87.695 Y101.718 E0.26505
G1 X87.608 Y101.249 E0.28092
G1 X87.608 Y100.754 E0.29738
G1 X87.695 Y100.278 E0.31348
G1 X87.873 Y99.814 E0.33001
G1 X88.138 Y99.392 E0.34658
G1 X88.46 Y99.039 E0.36247
G1 X88.847 Y98.745 E0.37864
G1 X89.292 Y98.524 E0.39516
G1 X89.768 Y98.392 E0.41159
G1 X90.181 Y98.35 E0.4254
G1 X94.801 Y98.35 E0.57906
G1 X95.232 Y98.391 E0.59346
G1 X95.705 Y98.525 E0.60981
G1 X96.149 Y98.745 E0.62629
G1 X96.536 Y99.039 E0.64246
G1 X96.858 Y99.392 E0.65835
G1 X97.125 Y99.816 E0.67501
G1 X97.3 Y100.275 E0.69135
G1 X97.386 Y100.754 E0.70754
G1 X97.389 Y101.245 E0.72387
G1 X97.293 Y101.737 E0.74054
G1 X97.111 Y102.201 E0.75712
G1 X96.874 Y102.578 E0.77193
G1 X96.533 Y102.956 E0.78886
G1 X96.145 Y103.251 E0.80507
G1 X95.698 Y103.475 E0.8217
G1 X95.227 Y103.604 E0.83795
G1 X94.784 Y103.648 E0.85275
G1 F1500 E-1.14725
G0 F6000 X96.24 Y103.405
G0 X100.914 Y105.998
G0 X103.099 Y108.145
G1 F1500 E0.85275
G1 F1200 X102.696 Y108.077 E0.86635
G1 X102.244 Y107.903 E0.88245
G1 X101.872 Y107.649 E0.89744
G1 X101.528 Y107.294 E0.91388
G1 X101.288 Y106.889 E0.92954
G1 X101.146 Y106.462 E0.9445
G1 X101.096 Y106.001 E0.95993
G1 X101.146 Y105.533 E0.97558
G1 X101.294 Y105.093 E0.99102
G1 X101.523 Y104.715 E1.00572
G1 X101.839 Y104.376 E1.02113
G1 X102.241 Y104.098 E1.03739
G1 X102.67 Y103.921 E1.05283
G1 X103.134 Y103.849 E1.06844
G1 X103.597 Y103.871 E1.08386
G1 X104.045 Y104 E1.09937
G1 X104.459 Y104.215 E1.11488
G1 X104.814 Y104.52 E1.13045
G1 X105.092 Y104.892 E1.14589
G1 X105.286 Y105.314 E1.16134
G1 X105.385 Y105.761 E1.17657
G1 X105.388 Y106.237 E1.1924
G1 X105.285 Y106.684 E1.20766
G1 X105.088 Y107.11 E1.22327
G1 X104.807 Y107.484 E1.23883
G1 X104.438 Y107.79 E1.25477
G1 X104.043 Y107.994 E1.26956
G1 X103.601 Y108.124 E1.28488
G1 X103.099 Y108.145 E1.30159
G1 F1500 E-0.69841
G0 F6000 X102.147 Y108.058
G0 X96.658 Y116.909
G0 X94.756 Y121.648
G1 F1500 E1.30159
G1 F1200 X90.195 Y121.646 E1.45329
G1 X89.765 Y121.605 E1.46766
G1 X89.29 Y121.475 E1.48404
G1 X88.849 Y121.252 E1.50048
G1 X88.461 Y120.957 E1.51669
G1 X88.138 Y120.604 E1.5326
G1 X87.873 Y120.182 E1.54917
G1 X87.695 Y119.719 E1.56567
G1 X87.608 Y119.249 E1.58157
G1 X87.608 Y118.754 E1.59803
G1 X87.695 Y118.279 E1.6141
G1 X87.871 Y117.817 E1.63054
G1 X88.138 Y117.392 E1.64723
G1 X88.46 Y117.039 E1.66312
G1 X88.848 Y116.745 E1.67932
G1 X89.291 Y116.526 E1.69575
G1 X89.764 Y116.391 E1.71211
G1 X90.195 Y116.349 E1.72652
G1 X94.773 Y116.348 E1.87878
G1 X95.233 Y116.393 E1.89415
G1 X95.735 Y116.54 E1.91155
G1 X96.164 Y116.758 E1.92756
G1 X96.535 Y117.042 E1.9431
G1 X96.87 Y117.413 E1.95972
G1 X97.118 Y117.809 E1.97526
G1 X97.302 Y118.282 E1.99214
G1 X97.388 Y118.754 E2.0081
G1 X97.388 Y119.243 E2.02436
G1 X97.3 Y119.722 E2.04056
G1 X97.125 Y120.18 E2.05687
G1 X96.86 Y120.6 E2.07339
G1 X96.536 Y120.957 E2.08942
G1 X96.145 Y121.253 E2.10573
G1 X95.705 Y121.475 E2.12212
G1 X95.228 Y121.604 E2.13856
G1 X94.756 Y121.648 E2.15433
G1 F1500 E0.15433
G0 F6000 X96.236 Y121.411
G0 X96.234 Y123.216
G0 X110 Y123.398
G1 F1500 E2.15433
G1 F1200 X135.234 Y123.4 E2.99361
G1 X135.543 Y123.373 E3.00393
G1 X135.833 Y123.303 E3.01385
G1 X136.103 Y123.191 E3.02357
G1 X136.372 Y123.027 E3.03405
G1 X136.582 Y122.85 E3.04319
G1 X136.783 Y122.612 E3.05355
G1 X136.94 Y122.352 E3.06365
G1 X137.056 Y122.082 E3.07342
G1 X137.125 Y121.794 E3.08327
G1 X137.148 Y121.5 E3.09308
G1 X137.148 Y98.507 E3.85783
G1 X137.125 Y98.202 E3.86801
G1 X137.056 Y97.917 E3.87776
G1 X136.94 Y97.642 E3.88769
G1 X136.784 Y97.386 E3.89766
G1 X136.582 Y97.15 E3.90799
G1 X136.37 Y96.967 E3.9173
G1 X136.103 Y96.805 E3.92769
G1 X135.833 Y96.693 E3.93741
G1 X135.545 Y96.623 E3.94727
G1 X135.252 Y96.6 E3.95705
G1 X85.259 Y96.6 E5.61982
G1 X84.961 Y96.623 E5.62976
G1 X84.651 Y96.697 E5.64036
G1 X84.394 Y96.804 E5.64962
G1 X84.126 Y96.967 E5.66005
G1 X83.914 Y97.15 E5.66937
G1 X83.712 Y97.386 E5.6797
G1 X83.556 Y97.642 E5.68967
G1 X83.441 Y97.916 E5.69955
G1 X83.375 Y98.191 E5.70896
G1 X83.348 Y98.524 E5.72007
G1 X83.348 Y121.461 E6.48296
G1 X83.375 Y121.807 E6.4945
G1 X83.44 Y122.083 E6.50393
G1 X83.556 Y122.353 E6.51371
G1 X83.713 Y122.612 E6.52378
G1 X83.914 Y122.85 E6.53414
G1 X84.126 Y123.029 E6.54337
G1 X84.394 Y123.195 E6.55386
G1 X84.648 Y123.298 E6.56297
G1 X84.962 Y123.373 E6.57371
G1 X85.248 Y123.396 E6.58325
G1 X110 Y123.398 E7.40651
G1 F1500 E5.40651
G0 F6000 X123.796 Y123.219
G0 X124.221 Y121.643
G0 X123.83 Y116.555
G0 X123.74 Y116.289
G0 X123.136 Y116.152
G1 F1500 E7.40651
G1 F1200 X122.665 Y116.073 E7.42239
G1 X122.242 Y115.899 E7.43761
G1 X121.861 Y115.639 E7.45295
G1 X121.541 Y115.305 E7.46833
G1 X121.294 Y114.902 E7.48405
G1 X121.148 Y114.456 E7.49966
G1 X121.096 Y114.005 E7.51476
G1 X121.146 Y113.535 E7.53048
G1 X121.304 Y113.073 E7.54672
G1 X121.531 Y112.704 E7.56113
G1 X121.87 Y112.349 E7.57746
G1 X122.24 Y112.094 E7.5924
G1 X122.659 Y111.929 E7.60738
G1 X123.12 Y111.853 E7.62292
G1 X123.573 Y111.872 E7.638
G1 X124.044 Y111.999 E7.65423
G1 X124.457 Y112.219 E7.66979
G1 X124.81 Y112.521 E7.68524
G1 X125.095 Y112.89 E7.70075
G1 X125.276 Y113.287 E7.71526
G1 X125.388 Y113.756 E7.7313
G1 X125.388 Y114.236 E7.74726
G1 X125.289 Y114.682 E7.76246
G1 X125.096 Y115.105 E7.77792
G1 X124.829 Y115.454 E7.79254
G1 X124.511 Y115.737 E7.8067
G1 F1129.4 X124.065 Y116.052 E7.82599
G1 X123.536 Y116.128 E7.84488
G1 F1200 X123.136 Y116.152 E7.85821
G0 F6000 X123.798 Y116.21
G0 X124.106 Y116.287
G0 X123.012 Y117.885
G0 X122.844 Y118.316
G0 X122.759 Y118.77
G0 X122.759 Y119.23
G0 X122.844 Y119.684
G0 X123.012 Y120.115
G0 X123.254 Y120.507
G0 X123.565 Y120.848
G0 X123.932 Y121.126
G0 X125.195 Y121.646
G1 F1200 X124.763 Y121.605 E7.87264
G1 X124.289 Y121.475 E7.88899
G1 X123.851 Y121.252 E7.90533
G1 X123.461 Y120.958 E7.92158
G1 X123.138 Y120.604 E7.93752
G1 X122.871 Y120.18 E7.95418
G1 X122.697 Y119.723 E7.97045
G1 X122.608 Y119.242 E7.98672
G1 X122.611 Y118.74 E8.00341
G1 X122.696 Y118.285 E8.01881
G1 X122.872 Y117.822 E8.03528
G1 X123.134 Y117.397 E8.05189
G1 F1188.1 X123.463 Y117.036 E8.0683
G1 F1165 X123.898 Y116.71 E8.08692
G1 F1100.9 X124.246 Y116.481 E8.10202
G1 F1121.5 X124.798 Y116.388 E8.12194
G1 F1200 X125.181 Y116.35 E8.13474
G1 X129.801 Y116.35 E8.28841
G1 X130.232 Y116.391 E8.30281
G1 X130.705 Y116.526 E8.31917
G1 X131.148 Y116.745 E8.3356
G1 X131.536 Y117.039 E8.35179
G1 X131.858 Y117.392 E8.36768
G1 X132.125 Y117.816 E8.38435
G1 X132.301 Y118.278 E8.40079
G1 X132.388 Y118.747 E8.41666
G1 X132.388 Y119.249 E8.43336
G1 X132.301 Y119.718 E8.44922
G1 X132.125 Y120.18 E8.46566
G1 X131.858 Y120.604 E8.48233
G1 X131.535 Y120.957 E8.49824
G1 X131.146 Y121.252 E8.51448
G1 X130.706 Y121.475 E8.53089
G1 X130.229 Y121.606 E8.54734
G1 X129.756 Y121.648 E8.56313
G1 X125.195 Y121.646 E8.71483
G1 F1500 E6.71483
G0 F6000 X123.932 Y121.126
G0 X123.565 Y120.848
G0 X123.254 Y120.507
G0 X123.012 Y120.115
G0 X122.844 Y119.684
G0 X122.759 Y119.23
G0 X122.759 Y118.77
G0 X122.844 Y118.316
G0 X123.012 Y117.885
G0 X124.965 Y115.032
G0 X125.147 Y114.639
G0 X125.24 Y114.217
G0 X125.24 Y113.783
G0 X124.559 Y112.069
G0 X125.236 Y103.829
G0 X125.24 Y103.648
G1 F1500 E8.71483
G1 F1200 X124.771 Y103.604 E8.7305
G1 X124.291 Y103.475 E8.74703
G1 X123.847 Y103.248 E8.76362
G1 X123.46 Y102.953 E8.7798
G1 X123.136 Y102.6 E8.79574
G1 X122.879 Y102.19 E8.81183
G1 X122.695 Y101.719 E8.82865
G1 X122.608 Y101.243 E8.84475
G1 X122.608 Y100.753 E8.86104
G1 X122.696 Y100.274 E8.87724
G1 X122.871 Y99.816 E8.89355
G1 X123.138 Y99.392 E8.91022
G1 X123.46 Y99.039 E8.92611
G1 X123.847 Y98.745 E8.94227
G1 X124.292 Y98.524 E8.9588
G1 X124.768 Y98.392 E8.97523
G1 X125.181 Y98.35 E8.98903
G1 X129.801 Y98.35 E9.1427
G1 X130.232 Y98.391 E9.1571
G1 X130.705 Y98.525 E9.17345
G1 X131.149 Y98.745 E9.18993
G1 X131.536 Y99.039 E9.20609
G1 X131.858 Y99.392 E9.22198
G1 X132.125 Y99.816 E9.23865
G1 X132.301 Y100.278 E9.25509
G1 X132.388 Y100.747 E9.27096
G1 X132.388 Y101.249 E9.28765
G1 X132.301 Y101.718 E9.30352
G1 X132.125 Y102.18 E9.31996
G1 X131.858 Y102.604 E9.33663
G1 X131.536 Y102.957 E9.35252
G1 X131.149 Y103.251 E9.36868
G1 X130.706 Y103.475 E9.3852
G1 X130.23 Y103.605 E9.40161
G1 X129.787 Y103.648 E9.41641
G1 X125.24 Y103.648 E9.56764
G0 F6000 X125.233 Y103.248
;TYPE:WALL-OUTER
G1 F1200 X124.838 Y103.21 E9.58084
G1 X124.438 Y103.1 E9.59464
G1 X124.061 Y102.91 E9.60868
G1 X123.746 Y102.672 E9.62181
G1 X123.454 Y102.355 E9.63615
G1 X123.227 Y101.991 E9.65042
G1 X123.083 Y101.612 E9.6639
G1 X123.011 Y101.225 E9.67699
G1 X123.008 Y100.808 E9.69086
G1 X123.079 Y100.403 E9.70454
G1 X123.242 Y99.977 E9.71971
G1 X123.446 Y99.653 E9.73244
G1 X123.746 Y99.324 E9.74725
G1 X124.079 Y99.076 E9.76106
G1 X124.419 Y98.908 E9.77368
G1 X124.837 Y98.786 E9.78816
G1 X125.22 Y98.748 E9.80096
G1 X129.763 Y98.748 E9.95206
G1 X130.143 Y98.784 E9.96476
G1 X130.577 Y98.908 E9.97977
G1 X130.95 Y99.096 E9.99366
G1 X131.25 Y99.324 E10.00619
G1 X131.55 Y99.653 E10.021
G1 X131.771 Y100.012 E10.03503
G1 X131.917 Y100.403 E10.04891
G1 X131.985 Y100.771 E10.06135
G1 X131.985 Y101.225 E10.07645
G1 X131.917 Y101.593 E10.0889
G1 X131.754 Y102.019 E10.10407
G1 X131.55 Y102.343 E10.11681
G1 X131.25 Y102.672 E10.13161
G1 X130.95 Y102.9 E10.14415
G1 X130.579 Y103.091 E10.15803
G1 X130.144 Y103.212 E10.17304
G1 X129.767 Y103.248 E10.18564
G1 X125.233 Y103.248 E10.33644
G1 F1500 E8.33644
G0 F6000 X125.204 Y103.557
G0 X124.741 Y103.782
G0 X123.652 Y111.701
G0 X123.13 Y115.746
G1 F1500 E10.33644
G1 F1200 X122.798 Y115.69 E10.34764
G1 X122.411 Y115.534 E10.36152
G1 X122.107 Y115.323 E10.37383
G1 X121.855 Y115.057 E10.38601
G1 X121.658 Y114.736 E10.39854
G1 X121.545 Y114.394 E10.41052
G1 X121.5 Y113.989 E10.42407
G1 X121.54 Y113.622 E10.43635
G1 X121.65 Y113.279 E10.44833
G1 X121.851 Y112.944 E10.46133
G1 X122.111 Y112.669 E10.47391
G1 X122.431 Y112.45 E10.48681
G1 X122.774 Y112.312 E10.49911
G1 X123.149 Y112.252 E10.51174
G1 X123.525 Y112.269 E10.52426
G1 X123.913 Y112.382 E10.5377
G1 X124.233 Y112.55 E10.54972
G1 X124.532 Y112.81 E10.5629
G1 X124.749 Y113.098 E10.57489
G1 X124.903 Y113.431 E10.58709
G1 X124.984 Y113.784 E10.59914
G1 X124.984 Y114.212 E10.61337
G1 X124.912 Y114.536 E10.62441
G1 X124.736 Y114.918 E10.6384
G1 X124.525 Y115.194 E10.64996
G1 X124.226 Y115.451 E10.66307
G1 X123.876 Y115.629 E10.67613
G1 X123.556 Y115.721 E10.68721
G1 X123.13 Y115.746 E10.7014
G1 F1500 E8.7014
G0 F6000 X123.08 Y116.05
G0 X124.106 Y116.287
G0 X123.012 Y117.885
G0 X122.844 Y118.316
G0 X122.759 Y118.77
G0 X122.759 Y119.23
G0 X122.844 Y119.684
G0 X123.012 Y120.115
G0 X123.254 Y120.507
G0 X123.565 Y120.848
G0 X123.932 Y121.126
G0 X124.167 Y121.243
G0 X125.204 Y121.557
G0 X125.233 Y121.248
G1 F1500 E10.7014
G1 F1200 X124.853 Y121.212 E10.71409
G1 X124.417 Y121.091 E10.72914
G1 X124.077 Y120.919 E10.74182
G1 X123.746 Y120.672 E10.75555
G1 X123.446 Y120.343 E10.77036
G1 X123.225 Y119.984 E10.78438
G1 X123.079 Y119.593 E10.79827
G1 X123.011 Y119.225 E10.81071
G1 X123.008 Y118.808 E10.82458
G1 X123.082 Y118.388 E10.83877
G1 X123.232 Y117.996 E10.85273
G1 X123.446 Y117.653 E10.86617
G1 X123.746 Y117.324 E10.88098
G1 X124.079 Y117.076 E10.89479
G1 X124.419 Y116.908 E10.90741
G1 X124.817 Y116.791 E10.9212
G1 X125.22 Y116.748 E10.93468
G1 X129.763 Y116.748 E11.08578
G1 X130.144 Y116.784 E11.09851
G1 X130.577 Y116.908 E11.11349
G1 X130.95 Y117.096 E11.12739
G1 X131.25 Y117.324 E11.13992
G1 X131.55 Y117.653 E11.15473
G1 X131.771 Y118.012 E11.16875
G1 X131.917 Y118.403 E11.18263
G1 X131.985 Y118.771 E11.19508
G1 X131.985 Y119.225 E11.21018
G1 X131.917 Y119.593 E11.22262
G1 X131.754 Y120.019 E11.2378
G1 X131.55 Y120.343 E11.25053
G1 X131.25 Y120.672 E11.26534
G1 X130.919 Y120.919 E11.27907
G1 X130.579 Y121.091 E11.29175
G1 X130.144 Y121.212 E11.30677
G1 X129.756 Y121.248 E11.31973
G1 X125.233 Y121.248 E11.47016
G1 F1500 E9.47016
G0 F6000 X125.204 Y121.557
G0 X123.756 Y121.408
G0 X123.754 Y123.219
G0 X110 Y123.798
G1 F1500 E11.47016
G1 F1200 X135.251 Y123.8 E12.31001
G1 X135.607 Y123.769 E12.3219
G1 X135.957 Y123.685 E12.33387
G1 X136.285 Y123.549 E12.34568
G1 X136.606 Y123.353 E12.35819
G1 X136.866 Y123.134 E12.3695
G1 X137.109 Y122.846 E12.38203
G1 X137.297 Y122.536 E12.39409
G1 X137.437 Y122.208 E12.40595
G1 X137.521 Y121.856 E12.41799
G1 X137.548 Y121.516 E12.42933
G1 X137.548 Y98.492 E13.19511
G1 X137.521 Y98.14 E13.20685
G1 X137.437 Y97.791 E13.21879
G1 X137.297 Y97.46 E13.23075
G1 X137.109 Y97.15 E13.2428
G1 X136.866 Y96.866 E13.25524
G1 X136.606 Y96.643 E13.26663
G1 X136.285 Y96.447 E13.27914
G1 X135.957 Y96.311 E13.29095
G1 X135.608 Y96.227 E13.30289
G1 X135.268 Y96.2 E13.31423
G1 X85.244 Y96.2 E14.97804
G1 X84.899 Y96.227 E14.98955
G1 X84.527 Y96.315 E15.00226
G1 X84.212 Y96.447 E15.01362
G1 X83.89 Y96.643 E15.02616
G1 X83.63 Y96.866 E15.03755
G1 X83.387 Y97.15 E15.04998
G1 X83.199 Y97.46 E15.06204
G1 X83.059 Y97.791 E15.07399
G1 X82.979 Y98.128 E15.08551
G1 X82.948 Y98.508 E15.09819
G1 X82.948 Y121.476 E15.86211
G1 X82.979 Y121.869 E15.87523
G1 X83.059 Y122.209 E15.88684
G1 X83.199 Y122.536 E15.89867
G1 X83.387 Y122.846 E15.91073
G1 X83.63 Y123.134 E15.92327
G1 X83.89 Y123.353 E15.93457
G1 X84.212 Y123.553 E15.94718
G1 X84.526 Y123.68 E15.95844
G1 X84.9 Y123.769 E15.97123
G1 X85.232 Y123.796 E15.98231
G1 X110 Y123.798 E16.8061
G1 F1500 E14.8061
G0 F6000 X110.001 Y123.49
G0 X94.754 Y123.216
G0 X94.756 Y121.829
G0 X94.756 Y121.248
G1 F1500 E16.8061
G1 F1200 X90.233 Y121.248 E16.95653
G1 X89.853 Y121.212 E16.96923
G1 X89.417 Y121.091 E16.98428
G1 X89.046 Y120.9 E16.99816
G1 X88.746 Y120.672 E17.01069
G1 X88.446 Y120.343 E17.0255
G1 X88.225 Y119.984 E17.03952
G1 X88.079 Y119.593 E17.0534
G1 X88.01 Y119.223 E17.06592
G1 X88.011 Y118.771 E17.08095
G1 X88.079 Y118.403 E17.0934
G1 X88.242 Y117.977 E17.10857
G1 X88.446 Y117.653 E17.12131
G1 X88.746 Y117.324 E17.13611
G1 X89.079 Y117.076 E17.14992
G1 X89.419 Y116.908 E17.16254
G1 X89.852 Y116.784 E17.17752
G1 X90.24 Y116.748 E17.19048
G1 X94.763 Y116.748 E17.34091
G1 X95.151 Y116.785 E17.35388
G1 X95.554 Y116.898 E17.3678
G1 X95.931 Y117.084 E17.38178
G1 X96.264 Y117.336 E17.39567
G1 X96.544 Y117.644 E17.40951
G1 X96.771 Y118.012 E17.4239
G1 X96.917 Y118.403 E17.43778
G1 X96.985 Y118.771 E17.45022
G1 X96.985 Y119.225 E17.46532
G1 X96.917 Y119.593 E17.47777
G1 X96.754 Y120.019 E17.49294
G1 X96.55 Y120.343 E17.50568
G1 X96.25 Y120.672 E17.52048
G1 X95.919 Y120.919 E17.53422
G1 X95.579 Y121.091 E17.54689
G1 X95.159 Y121.21 E17.56141
G1 X94.756 Y121.248 E17.57488
G1 F1500 E15.57488
G0 F6000 X94.756 Y121.56
G0 X95.653 Y121.333
G0 X96.067 Y121.126
G0 X96.434 Y120.848
G0 X96.746 Y120.507
G0 X96.989 Y120.114
G0 X97.155 Y119.684
G0 X97.24 Y119.23
G0 X97.24 Y118.77
G0 X97.192 Y118.512
G0 X96.658 Y116.909
G0 X102.147 Y108.058
G0 X103.16 Y107.748
